src/standard/transportation/traffic-light.svg

<svg xmlns="http://www.w3.org/2000/svg" viewBox="0 0 36 36">
  <path d="M27.62 16a.62.62 0 0 0-.62-.62h-3.38v-1.82a4.61 4.61 0 0 0 4-4.56.62.62 0 0 0-.62-.62h-3.38V5a.62.62 0 0 0-.62-.62H13a.62.62 0 0 0-.62.62v3.38H9a.62.62 0 0 0-.62.62 4.61 4.61 0 0 0 4 4.56v1.82H9a.62.62 0 0 0-.62.62 4.61 4.61 0 0 0 4 4.56v1.82H9a.62.62 0 0 0-.62.62 4.61 4.61 0 0 0 4 4.56V31a.62.62 0 0 0 .62.62h10a.62.62 0 0 0 .62-.62v-3.44a4.61 4.61 0 0 0 4-4.56.62.62 0 0 0-.62-.62h-3.38v-1.82a4.61 4.61 0 0 0 4-4.56Zm-1.3.62a3.39 3.39 0 0 1-2.7 2.7v-2.7Zm0-7a3.39 3.39 0 0 1-2.7 2.7v-2.7Zm-16.64 0h2.7v2.7a3.39 3.39 0 0 1-2.7-2.7Zm0 7h2.7v2.7a3.39 3.39 0 0 1-2.7-2.7Zm0 7h2.7v2.7a3.39 3.39 0 0 1-2.7-2.7Zm12.7 6.76h-8.76V5.62h8.76Zm3.94-6.76a3.39 3.39 0 0 1-2.7 2.7v-2.7Z"/>
  <path d="M18 22.38a2.62 2.62 0 0 0 0 5.24 2.62 2.62 0 0 0 0-5.24Zm0 4a1.38 1.38 0 0 1 0-2.75 1.38 1.38 0 0 1 0 2.75Zm0-11a2.62 2.62 0 0 0 0 5.24 2.62 2.62 0 0 0 0-5.24Zm0 4a1.38 1.38 0 0 1 0-2.75 1.38 1.38 0 0 1 0 2.75Zm0-11a2.62 2.62 0 0 0 0 5.24 2.62 2.62 0 0 0 0-5.24Zm0 4a1.38 1.38 0 0 1 0-2.75 1.38 1.38 0 0 1 0 2.75Z"/>
</svg>

<svg id="acdd2e20-3fef-49a4-aece-4c1a2fc247ba" data-name="Icon" xmlns="http://www.w3.org/2000/svg" viewBox="0 0 36 36">
  <g>
    <path d="M27.62,16a.62.62,0,0,0-.62-.62H23.62V13.56a4.61,4.61,0,0,0,4-4.56A.62.62,0,0,0,27,8.38H23.62V5A.62.62,0,0,0,23,4.38H13a.62.62,0,0,0-.62.62V8.38H9A.62.62,0,0,0,8.38,9a4.61,4.61,0,0,0,4,4.56v1.82H9a.62.62,0,0,0-.62.62,4.61,4.61,0,0,0,4,4.56v1.82H9a.62.62,0,0,0-.62.62,4.61,4.61,0,0,0,4,4.56V31a.62.62,0,0,0,.62.62H23a.62.62,0,0,0,.62-.62V27.56a4.61,4.61,0,0,0,4-4.56.62.62,0,0,0-.62-.62H23.62V20.56A4.61,4.61,0,0,0,27.62,16Zm-1.3.62a3.39,3.39,0,0,1-2.7,2.7v-2.7Zm0-7a3.39,3.39,0,0,1-2.7,2.7V9.62Zm-16.64,0h2.7v2.7A3.39,3.39,0,0,1,9.68,9.62Zm0,7h2.7v2.7A3.39,3.39,0,0,1,9.68,16.62Zm0,7h2.7v2.7A3.39,3.39,0,0,1,9.68,23.62Zm12.7,6.76H13.62V5.62h8.76Zm3.94-6.76a3.39,3.39,0,0,1-2.7,2.7v-2.7Z"/>
    <path d="M18,22.38a2.62,2.62,0,0,0,0,5.24A2.62,2.62,0,0,0,18,22.38Zm0,4a1.38,1.38,0,0,1,0-2.75A1.38,1.38,0,0,1,18,26.38Z"/>
    <path d="M18,15.38a2.62,2.62,0,0,0,0,5.24A2.62,2.62,0,0,0,18,15.38Zm0,4a1.38,1.38,0,0,1,0-2.75A1.38,1.38,0,0,1,18,19.38Z"/>
    <path d="M18,8.38a2.62,2.62,0,0,0,0,5.24A2.62,2.62,0,0,0,18,8.38Zm0,4a1.38,1.38,0,0,1,0-2.75A1.38,1.38,0,0,1,18,12.38Z"/>
  </g>
</svg>
